!!!OTL@@DE: Rinaldo Rinaldini
!!!COM: Volksweise
!!!ODT: 1800
!!!OMD: Allegro moderato
!!!LYR: Vulpius, August
!!!LDT: 1798
!!!OCL: Erk, Ludwig
!!!GCO: Deutscher Liederschatz, Band 1
**kern	**kern	**kern
*staff3	*staff2	*staff1
*Ipiano	*Ipiano	*Ivox
*clefF4	*clefG2	*clefG2
*k[f#c#g#]	*k[f#c#g#]	*k[f#c#g#]
*A:	*A:	*A:
*met(C)	*met(C)	*met(C)
*M4/4	*M4/4	*M4/4
*MM116	*MM116	*MM116
8E\L	8e/L	8e/
8E\J	8e/J	8e/
=1	=1	=1
4A\	4a/	4a/
4A\	4a/	4a/
4E\	4e/	4e/
4E\	4e/	4e/
=2	=2	=2
(4C#/	(4c#/	(4c#/
8E/L	8e/L	8e/L
8C#/J)	8c#/J)	8c#/J)
4AA/	4A/	4A/
4A\ 4c#\	8a/L	8a/
.	8a/J	8a/
=3	=3	=3
4B\ 4d\	4e/ 4g#/	4g#/
4A\ 4c#\	4e/ 4a/	4a/
4G#\ 4B\	4e/ 4b/	4b\
4A\	4e/ 4cc#/	4cc#\
=4	=4	=4
2.E\	8g#\ (8b\	(8b\L
.	8ee\	8ee\
.	8b\ 8dd#\	8dd#\
.	8a\ 8cc#\	8cc#\J
.	4g#/ 4b/)	4b\)
4A\ 4c#\	8f#/ 8a/L	8a/
.	8a/J	8a/
=5	=5	=5
4B\	4e/ 4g#/	4g#/
4B\	4e/ 4g#/	4g#/
4BB\ 4A\	4d#/ 4f#/	4b\
4BB\ 4A\	4d#/ 4f#/	4b\
=6	=6	=6
4E\	2B/ 2e/	2e/
4E\	.	.
4EE/	4r	4r
4E\	8.e/L	8.e'/
.	16e/Jk	16e/
=7	=7	=7
*	*^	*
4E\	4.dd/	2e\	4.dd\
4G#\	.	.	.
.	8b/	.	8b\
4A\	4.cc#/	2e\	4.cc#\
4c#\	.	.	.
.	8a/	.	8a/
*	*v	*v	*
=8	=8	=8
4e\	(8a/ 8cc#/L	8cc#\L
.	8g#'/) 8b'/J	8b\J
4E\	4g#/ 4b/	4b\
4EE/	4r	4r
4r	8.e/L	8.e/
.	16e/Jk	16e/
=9	=9	=9
*	*^	*
4EE/	4.dd/	2e\	4.dd\
4GG#/	.	.	.
.	8b/	.	8b\
4AA/	4.cc#/	2e\	4.cc#\
4C#/	.	.	.
.	8a/	.	8a/
*	*v	*v	*
=10	=10	=10
4E\	(8a/ 8cc#/L	(8cc#\L
.	8g#/) 8b/J	8b\J)
4E\	4g#/ 4b/	4b\
4EE/	4r	4r
4r	8.e/L	8.e/
.	16e/Jk	16e/
=11	=11	=11
4AA\ 4A\	4c#/ 4a/	4a/
4A\ 4c#\	4e/ 4a/	4a/
4E\ 4B\	4e/ 4g#/ 4b/	4b\
4E\	4e/ 4g#/ 4b/	4b\
=12	=12	=12
(4.C#/	(4.ee/	(4.ee\
8E\	8cc#/	8cc#\
4A\)	4c#/ 4e/ 4a/)	4a/)
4CC#/ 4C#/	8A/ 8e/ 8a/L	8.a/
.	8a/J	.
.	.	16a/
=13	=13	=13
4DD/ 4D/	8d/ 8f#/L	(8f#/L
.	8dd/	8dd/
4DD/ 4D/	8f#/ 8cc#/	8cc#/J)
.	8b/J	8b\
4EE/ 4E/	4e/ 4a/ 4cc#/	4cc#\
4EE/	4d/ 4e/ 4g#/ 4b/	4b\
=14	=14	=14
2AAA/ 2AA/	2c#/ 2e/ 2a/	2a/
4r	4r	4r
==	==	==
*-	*-	*-
!!!ENC: Craig Stuart Sapp
!!!END: 2004/05/26/
!!!EFL: 064/651
